media/theme/theme-1/space.svg

<svg width="150" height="25" viewBox="0 0 150 25" fill="none" xmlns="http://www.w3.org/2000/svg">
<path fill-rule="evenodd" clip-rule="evenodd" d="M0.355026 19.9152L0.532541 19.774L0.710056 19.4915L0.887571 19.3503L1.2426 19.0678L1.59763 18.7853L1.95266 18.5028L2.30769 18.2203L2.66272 17.9378L3.01775 17.7966L3.55029 17.6554L3.90532 17.5141L4.08284 17.3729L4.43787 17.2316L4.97041 17.0904L5.50295 16.9491L6.0355 16.8079L6.56804 16.6667L7.10059 16.5254L7.63313 16.3842H8.16568L8.69822 16.2429L9.23077 16.1017H10.1183L10.6509 15.9604L11.0059 15.8192H17.929L18.284 15.9604H19.1716L19.5266 16.1017H19.8817L20.4142 16.2429L21.1243 16.3842H22.0118L22.8994 16.5254L23.787 16.6667L24.497 16.8079L25.2071 16.9491L25.7396 17.0904L26.2722 17.2316L26.8047 17.3729L27.3373 17.5141L28.0473 17.6554L28.9349 17.7966L29.4674 17.9378L30 18.0791L30.7101 18.2203L31.2426 18.3616L34.7929 19.3503L36.213 19.774L37.2781 19.9152L38.1657 20.1977L39.4083 20.6215L40.6509 20.7627L41.5385 21.0452L42.7811 21.3277L44.2012 21.6102L45.7988 21.8926L46.8639 22.1751L48.1065 22.4576L49.3491 22.5989L50.2367 22.7401L50.9467 22.8813L51.8343 23.0226L52.8994 23.3051L53.4319 23.4463L53.9645 23.5876H56.6272L57.3373 23.7288H58.4024L59.2899 23.87H62.6627L63.0177 23.7288L63.7278 23.5876L64.4379 23.4463L65.1479 23.3051L65.858 23.1638L66.568 22.8813L67.2781 22.4576L67.8106 22.1751L68.5207 21.7514L69.2308 21.3277L69.9408 20.9039L70.4734 20.1977L71.0059 19.6328L71.3609 19.209L71.716 18.9265L71.8935 18.3616V17.7966L72.071 17.2316V16.5254L71.8935 15.9604L71.5385 15.2542L71.0059 14.6893L70.2958 14.1243L69.5858 13.8418L68.5207 13.7006H66.7456L66.0355 13.8418L65.3254 13.983L64.9704 14.2655L64.2603 14.548L63.5503 14.6893L63.0177 14.9717L62.1302 15.3955L61.2426 15.8192L60.5325 15.9604L59.8225 16.2429L59.1124 16.3842L58.5799 16.5254H58.0473L57.3373 16.3842L56.9822 16.2429L56.8047 16.1017H57.6923L58.4024 15.8192L59.1124 15.5367L59.645 14.9717L60 14.548L60.8876 13.983L61.5976 13.2768L62.3077 12.9943L62.8402 12.7119L63.5503 12.4294L64.4379 12.2881L65.3254 12.1469H67.6331L68.3432 12.4294L69.0532 12.7119L69.7633 12.9943L70.2958 13.2768L70.6509 13.7006L71.1834 13.983L71.716 14.548L72.071 15.113L72.2485 15.3955L72.426 15.678V18.3616L72.071 18.9265L71.716 19.774L71.3609 20.1977L70.8284 20.6215L70.2958 21.1864L69.7633 21.6102L68.8757 22.3164L68.1657 22.7401L67.4556 23.1638L66.3905 23.4463L65.5029 23.7288L64.6154 23.87L63.9053 24.0113L63.0177 24.2938L62.3077 24.435L61.2426 24.5763H60.355L58.9349 24.435H55.3846L54.3195 24.2938L52.8994 24.1525L52.1893 24.0113H51.3018L50.0592 23.87L48.8166 23.5876L47.3964 23.4463L46.1538 23.1638L44.9112 23.0226L43.8461 22.7401L42.9586 22.5989L41.8935 22.4576L41.0059 22.1751L39.9408 22.0339L37.8106 21.4689L36.568 21.1864L34.7929 20.7627L32.8402 20.339L30.1775 19.4915L28.4024 19.0678L26.8047 18.5028L24.142 18.0791L22.3669 17.7966L20.5917 17.3729L18.639 17.2316L16.8639 16.9491L15.4438 16.8079H9.94082L9.05325 16.9491H8.16568L7.45562 17.0904L6.74556 17.2316L5.85798 17.3729L4.97041 17.6554L3.90532 18.0791L3.19526 18.3616L2.4852 18.6441L1.77514 19.0678L1.06509 19.6328L0.887571 19.774L0.355026 19.9152ZM144.497 19.9152L144.32 19.774L144.142 19.4915L143.964 19.3503L143.609 19.0678L143.254 18.7853L142.899 18.5028L142.544 18.2203L142.189 17.9378L141.834 17.7966L141.302 17.6554L140.947 17.5141L140.769 17.3729L140.414 17.2316L139.882 17.0904L139.349 16.9491L138.817 16.8079L138.284 16.6667L137.751 16.5254L137.219 16.3842H136.686L136.154 16.2429L135.621 16.1017H134.734L134.201 15.9604L133.846 15.8192H126.923L126.568 15.9604H125.68L125.325 16.1017H124.97L124.438 16.2429L123.728 16.3842H122.84L121.953 16.5254L121.065 16.6667L120.355 16.8079L119.645 16.9491L119.112 17.0904L118.58 17.2316L118.047 17.3729L117.515 17.5141L116.805 17.6554L115.917 17.7966L115.385 17.9378L114.852 18.0791L114.142 18.2203L113.609 18.3616L110.059 19.3503L108.639 19.774L107.574 19.9152L106.686 20.1977L105.444 20.6215L104.201 20.7627L103.314 21.0452L102.071 21.3277L100.651 21.6102L99.0532 21.8926L97.9882 22.1751L96.7455 22.4576L95.5029 22.5989L94.6154 22.7401L93.9053 22.8813L93.0177 23.0226L91.9527 23.3051L91.4201 23.4463L90.8876 23.5876H88.2248L87.5148 23.7288H86.4497L85.5621 23.87H82.1893L81.8343 23.7288L81.1242 23.5876L80.4142 23.4463L79.7041 23.3051L78.9941 23.1638L78.284 22.8813L77.574 22.4576L77.0414 22.1751L76.3314 21.7514L75.6213 21.3277L74.9112 20.9039L74.3787 20.1977L73.8461 19.6328L73.4911 19.209L73.1361 18.9265L72.9586 18.3616V17.7966L72.7811 17.2316V16.5254L72.9586 15.9604L73.3136 15.2542L73.8461 14.6893L74.5562 14.1243L75.2663 13.8418L76.3314 13.7006H78.1065L78.8166 13.8418L79.5266 13.983L79.8816 14.2655L80.5917 14.548L81.3018 14.6893L81.8343 14.9717L82.7219 15.3955L83.6095 15.8192L84.3195 15.9604L85.0296 16.2429L85.7396 16.3842L86.2722 16.5254H86.8047L87.5148 16.3842L87.8698 16.2429L88.0473 16.1017H87.1598L86.4497 15.8192L85.7396 15.5367L85.2071 14.9717L84.8521 14.548L83.9645 13.983L83.2544 13.2768L82.5444 12.9943L82.0118 12.7119L81.3018 12.4294L80.4142 12.2881L79.5266 12.1469H77.2189L76.5089 12.4294L75.7988 12.7119L75.0887 12.9943L74.5562 13.2768L74.2012 13.7006L73.6686 13.983L73.1361 14.548L72.7811 15.113L72.6035 15.3955L72.426 15.678V18.3616L72.7811 18.9265L73.1361 19.774L73.4911 20.1977L74.0237 20.6215L74.5562 21.1864L75.0887 21.6102L75.9763 22.3164L76.6864 22.7401L77.3964 23.1638L78.4615 23.4463L79.3491 23.7288L80.2367 23.87L80.9467 24.0113L81.8343 24.2938L82.5444 24.435L83.6095 24.5763H84.497L85.9171 24.435H89.4674L90.5325 24.2938L91.9527 24.1525L92.6627 24.0113H93.5503L94.7929 23.87L96.0355 23.5876L97.4556 23.4463L98.6982 23.1638L99.9408 23.0226L101.006 22.7401L101.893 22.5989L102.959 22.4576L103.846 22.1751L104.911 22.0339L107.041 21.4689L108.284 21.1864L110.059 20.7627L112.012 20.339L114.675 19.4915L116.45 19.0678L118.047 18.5028L120.71 18.0791L122.485 17.7966L124.26 17.3729L126.213 17.2316L127.988 16.9491L129.408 16.8079H134.911L135.799 16.9491H136.686L137.396 17.0904L138.106 17.2316L138.994 17.3729L139.882 17.6554L140.947 18.0791L141.657 18.3616L142.367 18.6441L143.077 19.0678L143.787 19.6328L143.964 19.774L144.497 19.9152ZM72.071 0.564964V1.27118L71.716 1.55366L71.3609 1.83615L71.1834 2.11864L71.0059 2.40112V2.54237L70.6509 2.40112H69.9408L69.5858 2.54237L69.7633 2.68361L70.1183 2.82485L70.4734 3.10734L70.8284 3.24858L71.1834 3.53107L71.3609 3.81355L71.5385 3.95479L71.8935 4.51977L72.071 4.80225V4.9435L71.8935 5.08474L71.5385 5.36722L71.3609 5.50847L71.1834 5.79095L71.0059 5.9322L70.8284 5.79095L70.6509 5.64971L70.2958 5.36722L70.1183 5.22598L69.9408 4.9435L69.7633 4.66101L69.4083 4.37852L69.2308 3.95479V3.81355L69.0532 3.53107L68.6982 4.23728L68.5207 4.37852H67.8106L67.4556 4.51977L67.2781 4.66101L66.9231 4.80225H66.7456L66.3905 4.9435H66.0355L65.858 5.08474H65.6805L65.3254 5.22598H64.9704L64.7929 5.08474L64.9704 4.9435V4.80225H64.2603V5.08474L64.4379 5.36722L64.7929 5.50847H65.3254L65.858 5.36722L66.213 5.22598L66.7456 5.08474H67.9882L68.3432 4.9435H68.8757L69.2308 5.08474L69.7633 5.36722L70.1183 5.64971L70.4734 5.9322L70.6509 6.07344V6.21468L70.4734 6.49717L70.2958 6.63841L69.9408 6.9209L69.7633 7.06214H69.4083L69.2308 6.9209L68.8757 6.77965L68.5207 6.63841L67.9882 6.49717L67.4556 6.35592L67.1006 6.21468H66.213L66.0355 6.35592L65.6805 6.49717L65.5029 6.77965L65.3254 7.06214V7.34463L65.6805 7.62711L66.0355 7.76835L66.568 7.9096H67.9882L68.3432 7.76835L68.6982 7.62711L69.0532 7.48587H69.5858L69.7633 7.62711L69.9408 7.76835L70.2958 8.05084L70.6509 8.19208V8.33333L70.4734 8.47457L70.2958 8.61581L69.9408 8.75705L69.5858 8.8983L69.2308 9.03954L68.6982 9.18078L68.1657 9.32203H66.568L66.0355 9.18078L65.5029 9.03954L64.9704 8.8983L64.2603 8.61581L63.7278 8.33333L63.3728 8.19208L63.1953 8.05084L63.0177 7.76835V6.35592L62.6627 6.63841L62.4852 6.77965L62.3077 7.06214H62.1302L61.7751 6.9209L61.4201 6.77965L61.2426 6.63841L60.8876 6.49717H60.1775L59.8225 6.63841L59.2899 6.77965L59.1124 6.9209L58.9349 7.06214L58.5799 7.34463V7.62711L58.7574 7.76835L58.9349 7.9096H59.1124L59.2899 7.76835L59.4674 7.62711V7.34463H59.2899V7.20338L59.4674 7.06214L59.645 6.9209H60.7101L60.8876 7.06214L61.0651 7.20338L61.4201 7.34463L61.5976 7.48587L62.1302 7.76835H61.5976L61.2426 7.9096L61.0651 8.05084V8.47457L61.2426 8.61581H61.4201V8.47457L61.5976 8.33333H62.6627L63.3728 8.61581L64.0828 8.8983L64.6154 9.03954L65.5029 9.32203L66.0355 9.46327L66.568 9.60451H68.6982L69.0532 9.46327L69.5858 9.32203L70.1183 9.18078L71.0059 8.61581L71.3609 8.75705L71.5385 8.8983L71.716 9.03954L71.8935 9.18078L72.071 9.32203L71.716 9.46327L71.5385 9.60451L71.1834 9.74576L70.8284 9.887L70.4734 10.0282L69.9408 10.1695L69.4083 10.3107L68.8757 10.452V10.7345L69.4083 10.8757L69.7633 11.1582L70.1183 11.2994H71.1834V11.8644L71.3609 12.1469L71.5385 12.2881L71.716 12.5706L71.8935 12.7119L72.2485 12.9943V11.7232L71.8935 11.5819L71.716 11.4407L71.5385 11.2994V10.3107L71.716 10.0282L71.8935 9.74576L72.071 9.60451L72.2485 9.46327V9.18078L72.071 9.03954L71.8935 8.8983L71.5385 8.61581L71.3609 8.47457L71.5385 8.33333L71.716 8.19208L71.8935 8.05084L72.071 7.9096L72.2485 7.76835V7.20338L71.8935 6.9209L71.716 6.63841L71.3609 6.49717L71.1834 6.35592V6.07344L71.5385 5.79095L71.8935 5.50847L72.071 5.36722L72.2485 5.22598V4.23728L72.071 3.95479L71.716 3.67231V3.38982L71.5385 3.24858V2.54237L71.716 2.40112V2.11864L71.8935 1.97739L72.071 1.69491L72.2485 1.55366V0.423721L72.071 0.564964ZM72.426 0.564964V1.27118L72.7811 1.55366L73.1361 1.83615L73.3136 2.11864L73.4911 2.40112V2.54237L73.8461 2.40112H74.5562L74.9112 2.54237L74.7337 2.68361L74.3787 2.82485L74.0237 3.10734L73.6686 3.24858L73.3136 3.53107L73.1361 3.81355L72.9586 3.95479L72.6035 4.51977L72.426 4.80225V4.9435L72.6035 5.08474L72.9586 5.36722L73.1361 5.50847L73.3136 5.79095L73.4911 5.9322L73.6686 5.79095L73.8461 5.64971L74.2012 5.36722L74.3787 5.22598L74.5562 4.9435L74.7337 4.66101L75.0887 4.37852L75.2663 3.95479V3.81355L75.4438 3.53107L75.7988 4.23728L75.9763 4.37852H76.6864L77.0414 4.51977L77.2189 4.66101L77.574 4.80225H77.7515L78.1065 4.9435H78.4615L78.639 5.08474H78.8166L79.1716 5.22598H79.5266L79.7041 5.08474L79.5266 4.9435V4.80225H80.2367V5.08474L80.0592 5.36722L79.7041 5.50847H79.1716L78.639 5.36722L78.284 5.22598L77.7515 5.08474H76.5089L76.1538 4.9435H75.6213L75.2663 5.08474L74.7337 5.36722L74.3787 5.64971L74.0237 5.9322L73.8461 6.07344V6.21468L74.0237 6.49717L74.2012 6.63841L74.5562 6.9209L74.7337 7.06214H75.0887L75.2663 6.9209L75.6213 6.77965L75.9763 6.63841L76.5089 6.49717L77.0414 6.35592L77.3964 6.21468H78.284L78.4615 6.35592L78.8166 6.49717L78.9941 6.77965L79.1716 7.06214V7.34463L78.8166 7.62711L78.4615 7.76835L77.929 7.9096H76.5089L76.1538 7.76835L75.7988 7.62711L75.4438 7.48587H74.9112L74.7337 7.62711L74.5562 7.76835L74.2012 8.05084L73.8461 8.19208V8.33333L74.0237 8.47457L74.2012 8.61581L74.5562 8.75705L74.9112 8.8983L75.2663 9.03954L75.7988 9.18078L76.3314 9.32203H77.929L78.4615 9.18078L78.9941 9.03954L79.5266 8.8983L80.2367 8.61581L80.7692 8.33333L81.1242 8.19208L81.3018 8.05084L81.4793 7.76835V6.35592L81.8343 6.63841L82.0118 6.77965L82.1893 7.06214H82.3669L82.7219 6.9209L83.0769 6.77965L83.2544 6.63841L83.6095 6.49717H84.3195L84.6745 6.63841L85.2071 6.77965L85.3846 6.9209L85.5621 7.06214L85.9171 7.34463V7.62711L85.7396 7.76835L85.5621 7.9096H85.3846L85.2071 7.76835L85.0296 7.62711V7.34463H85.2071V7.20338L85.0296 7.06214L84.8521 6.9209H83.787L83.6095 7.06214L83.4319 7.20338L83.0769 7.34463L82.8994 7.48587L82.3669 7.76835H82.8994L83.2544 7.9096L83.4319 8.05084V8.47457L83.2544 8.61581H83.0769V8.47457L82.8994 8.33333H81.8343L81.1242 8.61581L80.4142 8.8983L79.8816 9.03954L78.9941 9.32203L78.4615 9.46327L77.929 9.60451H75.7988L75.4438 9.46327L74.9112 9.32203L74.3787 9.18078L73.4911 8.61581L73.1361 8.75705L72.9586 8.8983L72.7811 9.03954L72.6035 9.18078L72.426 9.32203L72.7811 9.46327L72.9586 9.60451L73.3136 9.74576L73.6686 9.887L74.0237 10.0282L74.5562 10.1695L75.0887 10.3107L75.6213 10.452V10.7345L75.0887 10.8757L74.7337 11.1582L74.3787 11.2994H73.3136V11.8644L73.1361 12.1469L72.9586 12.2881L72.7811 12.5706L72.6035 12.7119L72.2485 12.9943V11.7232L72.6035 11.5819L72.7811 11.4407L72.9586 11.2994V10.3107L72.7811 10.0282L72.6035 9.74576L72.426 9.60451L72.2485 9.46327V9.18078L72.426 9.03954L72.6035 8.8983L72.9586 8.61581L73.1361 8.47457L72.9586 8.33333L72.7811 8.19208L72.6035 8.05084L72.426 7.9096L72.2485 7.76835V7.20338L72.6035 6.9209L72.7811 6.63841L73.1361 6.49717L73.3136 6.35592V6.07344L72.9586 5.79095L72.6035 5.50847L72.426 5.36722L72.2485 5.22598V4.23728L72.426 3.95479L72.7811 3.67231V3.38982L72.9586 3.24858V2.54237L72.7811 2.40112V2.11864L72.6035 1.97739L72.426 1.69491L72.2485 1.55366V0.423721L72.426 0.564964Z" fill="black"/>
</svg>

<svg fill="none" height="25" width="150" xmlns="http://www.w3.org/2000/svg"><path clip-rule="evenodd" d="m.355 19.915.178-.141.177-.283.178-.14.355-.283.355-.283.355-.282.355-.283.355-.282.355-.141.532-.142.355-.14.178-.142.355-.141.532-.142.533-.14.533-.142.532-.141.533-.142.532-.14h.533l.532-.142.533-.141h.887l.533-.142.355-.14h6.923l.355.14h.888l.355.142h.355l.532.14.71.142h.888l.887.141.888.142.71.14.71.142.533.141.532.142.533.14.532.142.71.141.888.142.532.14.533.142.71.141.533.142 3.55.988 1.42.424 1.065.141.888.283 1.242.424 1.243.14.887.283 1.243.283 1.42.282 1.598.283 1.065.282 1.242.283 1.243.14.888.142.71.141.887.142 1.065.282.533.141.532.142h2.663l.71.14h1.065l.888.142h3.373l.355-.141.71-.141.71-.142.71-.14.71-.142.71-.283.71-.423.533-.283.71-.424.71-.423.71-.424.532-.706.533-.565.355-.424.355-.282.177-.565v-.565l.178-.565v-.707l-.178-.565-.355-.706-.532-.565-.71-.565-.71-.282-1.065-.141h-1.775l-.71.14-.71.142-.356.283-.71.282-.71.141-.532.283-.888.424-.887.423-.71.141-.71.283-.71.141-.533.141h-.533l-.71-.14-.355-.142-.177-.141h.887l.71-.283.71-.282.533-.565.355-.424.888-.565.71-.706.71-.283.532-.282.71-.283.888-.14.887-.142h2.308l.71.282.71.283.71.282.533.283.355.424.532.282.533.565.355.565.177.283.178.282v2.684l-.355.565-.355.847-.355.424-.533.424-.532.564-.533.424-.887.706-.71.424-.71.424-1.066.282-.887.283-.888.141-.71.141-.887.283-.71.141-1.065.141h-.888l-1.42-.141h-3.55l-1.066-.141-1.42-.141-.71-.142h-.887l-1.243-.141-1.242-.282-1.42-.142-1.243-.282-1.243-.141-1.065-.283-.887-.141-1.066-.141-.887-.283-1.065-.141-2.13-.565-1.243-.283-1.775-.423-1.953-.424-2.663-.847-1.775-.424-1.597-.565-2.663-.424-1.775-.282-1.775-.424-1.953-.141-1.775-.283-1.42-.141H9.94l-.888.141h-.887l-.71.141-.71.142-.888.14-.888.283-1.065.424-.71.283-.71.282-.71.424-.71.565-.177.141zm144.142 0-.177-.141-.178-.283-.178-.14-.355-.283-.355-.283-.355-.282-.355-.283-.355-.282-.355-.141-.532-.142-.355-.14-.178-.142-.355-.141-.532-.142-.533-.14-.532-.142-.533-.141-.533-.142-.532-.14h-.533l-.532-.142-.533-.141h-.887l-.533-.142-.355-.14h-6.923l-.355.14h-.888l-.355.142h-.355l-.532.14-.71.142h-.888l-.887.141-.888.142-.71.14-.71.142-.533.141-.532.142-.533.14-.532.142-.71.141-.888.142-.532.14-.533.142-.71.141-.533.142-3.55.988-1.42.424-1.065.141-.888.283-1.242.424-1.243.14-.887.283-1.243.283-1.42.282-1.598.283-1.065.282-1.242.283-1.243.14-.888.142-.71.141-.887.142-1.065.282-.533.141-.532.142h-2.663l-.71.14H86.45l-.888.142H82.19l-.355-.141-.71-.141-.71-.142-.71-.14-.71-.142-.71-.283-.71-.423-.533-.283-.71-.424-.71-.423-.71-.424-.532-.706-.533-.565-.355-.424-.355-.282-.177-.565v-.565l-.178-.565v-.707l.178-.565.355-.706.532-.565.71-.565.71-.282 1.065-.141h1.776l.71.14.71.142.355.283.71.282.71.141.532.283.888.424.888.423.71.141.71.283.71.141.532.141h.533l.71-.14.355-.142.177-.141h-.887l-.71-.283-.71-.282-.533-.565-.355-.424-.887-.565-.71-.706-.71-.283-.533-.282-.71-.283-.888-.14-.887-.142h-2.308l-.71.282-.71.283-.71.282-.533.283-.355.424-.532.282-.533.565-.355.565-.177.283-.178.282v2.684l.355.565.355.847.355.424.533.424.532.564.533.424.887.706.71.424.71.424 1.066.282.887.283.888.141.71.141.887.283.71.141 1.066.141h.887l1.42-.141h3.55l1.066-.141 1.42-.141.71-.142h.887l1.243-.141 1.243-.282 1.42-.142 1.242-.282 1.243-.141 1.065-.283.887-.141 1.066-.141.887-.283 1.065-.141 2.13-.565 1.243-.283 1.775-.423 1.953-.424 2.663-.847 1.775-.424 1.597-.565 2.663-.424 1.775-.282 1.775-.424 1.953-.141 1.775-.283 1.42-.141h5.503l.888.141h.887l.71.141.71.142.888.14.888.283 1.065.424.71.283.71.282.71.424.71.565.177.141zM72.071.565v.706l-.355.283-.355.282-.178.283-.177.282v.141l-.355-.14h-.71l-.355.14.177.142.355.14.355.283.355.142.355.282.178.283.178.14.355.566.177.282v.141l-.177.142-.355.282-.178.141-.178.283-.177.141-.178-.141-.177-.141-.355-.283-.178-.141-.177-.283-.178-.282-.355-.282-.177-.424v-.141l-.178-.283-.355.706-.177.142h-.71l-.355.14-.178.142-.355.141h-.177l-.355.141h-.355l-.178.142h-.177l-.356.141h-.355l-.177-.141.177-.142v-.14h-.71v.282l.178.282.355.141h.532l.533-.14.355-.142.533-.141h1.242l.355-.142h.533l.355.142.532.282.355.283.355.282.178.141v.142l-.178.282-.177.141-.355.283-.178.141h-.355l-.177-.141-.355-.141-.355-.142-.533-.14-.532-.142-.355-.141h-.888l-.177.14-.355.142-.178.283-.178.282v.283l.356.282.355.141.532.142h1.42l.355-.142.355-.14.355-.142h.533l.177.141.178.141.355.283.355.141v.141l-.178.142-.177.14-.355.142-.355.141-.355.142-.533.14-.532.142h-1.598l-.532-.141-.533-.141-.533-.142-.71-.282-.532-.283-.355-.14-.178-.142-.177-.283V6.356l-.355.282-.178.142-.177.282h-.178l-.355-.141-.355-.141-.177-.142-.355-.14h-.71l-.355.14-.533.142-.178.14-.177.142-.355.283v.282l.177.141.178.142h.177l.178-.142.177-.14v-.283h-.177v-.142l.177-.14.178-.142h1.065l.178.141.177.141.355.142.178.14.532.283h-.532l-.355.142-.178.14v.425l.178.14h.177v-.14l.178-.142h1.065l.71.283.71.282.532.142.888.282.533.141.532.142h2.13l.355-.142.533-.141.532-.141.888-.565.355.141.178.141.177.142.178.14.177.142-.355.141-.177.142-.356.14-.355.142-.355.141-.532.141-.533.142-.532.141v.282l.532.142.355.282.355.141h1.065v.565l.178.283.178.141.177.283.178.14.355.283v-1.27l-.355-.142-.178-.141-.177-.142v-.988l.177-.283.178-.282.177-.141.178-.142v-.282l-.178-.141-.177-.142-.355-.282-.178-.141.178-.142.177-.14.178-.142.177-.141.178-.142v-.565l-.355-.282-.178-.283-.355-.14-.178-.142v-.283l.356-.282.355-.283.177-.14.178-.142v-.989l-.178-.282-.355-.283V3.39l-.177-.141v-.707l.177-.14v-.283l.178-.142.177-.282.178-.141V.424zm.355 0v.706l.355.283.355.282.178.283.177.282v.141l.355-.14h.71l.355.14-.177.142-.355.14-.355.283-.355.142-.355.282-.178.283-.177.14-.355.566-.178.282v.141l.178.142.355.282.177.141.178.283.177.141.178-.141.177-.141.355-.283.178-.141.177-.283.178-.282.355-.282.177-.424v-.141l.178-.283.355.706.177.142h.71l.355.14.178.142.355.141h.177l.355.141h.355l.178.142h.178l.355.141h.355l.177-.141-.177-.142v-.14h.71v.282l-.178.282-.355.141h-.532l-.533-.14-.355-.142-.533-.141H76.51l-.355-.142h-.533l-.355.142-.532.282-.355.283-.355.282-.178.141v.142l.178.282.177.141.355.283.178.141h.355l.177-.141.355-.141.355-.142.533-.14.532-.142.355-.141h.888l.177.14.356.142.177.283.178.282v.283l-.355.282-.356.141-.532.142h-1.42l-.355-.142-.355-.14-.355-.142h-.533l-.177.141-.178.141-.355.283-.355.141v.141l.178.142.177.14.355.142.355.141.355.142.533.14.532.142h1.598l.532-.141.533-.141.533-.142.71-.282.532-.283.355-.14.178-.142.177-.283V6.356l.355.282.178.142.177.282h.178l.355-.141.355-.141.177-.142.355-.14h.71l.355.14.533.142.178.14.177.142.355.283v.282l-.177.141-.178.142h-.177l-.178-.142-.177-.14v-.283h.177v-.142l-.177-.14-.178-.142h-1.065l-.178.141-.177.141-.355.142-.178.14-.532.283h.532l.355.142.178.14v.425l-.178.14h-.177v-.14l-.178-.142h-1.065l-.71.283-.71.282-.532.142-.888.282-.533.141-.532.142h-2.13l-.355-.142-.533-.141-.532-.141-.888-.565-.355.141-.177.141-.178.142-.178.14-.177.142.355.141.178.142.355.14.355.142.355.141.532.141.533.142.532.141v.282l-.532.142-.355.282-.355.141h-1.065v.565l-.178.283-.177.141-.178.283-.178.14-.355.283v-1.27l.355-.142.178-.141.178-.142v-.988l-.178-.283-.178-.282-.177-.141-.178-.142v-.282l.178-.141.177-.142.356-.282.177-.141-.177-.142-.178-.14-.178-.142-.177-.141-.178-.142v-.565l.355-.282.178-.283.355-.14.178-.142v-.283l-.355-.282-.356-.283-.177-.14-.177-.142v-.989l.177-.282.355-.283V3.39l.178-.141v-.707l-.178-.14v-.283l-.178-.142-.177-.282-.177-.141V.424z" fill="#000" fill-rule="evenodd"/></svg>
